packages/core/src/svgs/tokens/branded/IQ.svg

<svg width="24" height="24" viewBox="0 0 24 24" fill="none" xmlns="http://www.w3.org/2000/svg">
<path d="M9.8731 2.11875C7.32538 2.72095 5.10204 4.26945 3.65387 6.4503C2.95164 7.49491 2.4611 8.66711 2.21003 9.90052C1.99729 11.0272 1.94678 12.1786 2.06001 13.3195C2.37164 15.8445 3.63739 18.1547 5.59776 19.7761C6.64158 20.6575 7.81665 21.3138 7.81665 21.0075C7.81665 20.9637 7.69165 20.8138 7.54163 20.6575C6.51657 19.6574 5.97902 17.8886 6.19155 16.251C6.47906 14.0633 7.36038 12.6069 9.07924 11.4756C9.40421 11.2569 9.70436 11.0818 9.73557 11.0818C9.86055 11.0818 9.78559 10.8319 9.47305 10.2193C8.93917 9.30971 8.6586 8.27378 8.66047 7.2191C8.66244 5.59982 9.26872 4.03957 10.3607 2.84381C10.6607 2.55003 10.6981 2.48752 10.6981 2.25C10.6981 2.0125 10.6856 2 10.5357 2C10.4356 2 10.1419 2.05625 9.8731 2.11875Z" fill="#388CE0"/>
<path d="M15.9733 2.75634C15.9733 2.80634 16.0671 2.97511 16.1795 3.13136C16.7089 3.88144 17.0066 4.77025 17.0359 5.68779C17.0922 6.83787 16.786 7.83793 16.2233 8.34422C15.8046 8.71924 15.4483 8.73174 14.9295 8.40048C14.5669 8.16296 14.5232 7.98794 14.767 7.67542C15.2206 7.0259 15.4548 6.24852 15.4359 5.45653C15.4359 4.57521 15.267 4.08143 14.8108 3.6564C14.6015 3.43825 14.3364 3.28199 14.0441 3.20481C13.7518 3.12762 13.4441 3.13249 13.1545 3.21887C12.4793 3.37513 11.8419 4.11269 11.4981 5.144C11.3231 5.67529 11.173 6.58785 11.173 7.11914C11.1793 8.1192 11.473 9.29429 11.9043 10.0132C12.2294 10.5189 12.6299 10.9721 13.0919 11.357C13.2169 11.457 13.3357 11.5569 13.3357 11.5757C13.3357 11.6007 13.2106 11.6632 13.0544 11.7256C11.9043 12.157 10.7418 13.4571 10.2293 14.8884C9.91878 15.6882 9.78037 16.5443 9.82296 17.4011C9.86671 18.4512 10.0543 18.9449 10.6417 19.5888C11.1043 20.1013 11.9794 20.3389 13.0295 20.2325C14.242 20.1075 15.1732 19.67 15.967 18.8324C16.3171 18.4575 16.3859 18.4137 16.4546 18.495C16.5172 18.5699 16.5046 18.6262 16.3796 18.845C15.5858 20.2137 14.1108 21.3827 12.7419 21.7264C12.4419 21.8014 12.3169 21.8639 12.3169 21.9264C12.3169 22.1451 14.1794 21.8451 15.3107 21.4388C16.7566 20.9097 18.0657 20.0636 19.1419 18.9625C20.2181 17.8616 21.0341 16.5335 21.5299 15.076C21.9237 13.8758 21.9926 13.4008 21.9988 11.9069C21.9988 10.7444 21.9863 10.4694 21.8676 9.88189C21.5668 8.41318 20.9469 7.02866 20.0514 5.82642C19.1559 4.62417 18.007 3.63365 16.6859 2.9251C16.2109 2.65634 15.9733 2.60007 15.9733 2.75634Z" fill="#094B89"/>
</svg>

<svg xmlns="http://www.w3.org/2000/svg" width="24" height="24" fill="none" viewBox="0 0 24 24">
    <path fill="#388CE0" d="M9.873 2.119a10.3 10.3 0 0 0-6.22 4.331A9.6 9.6 0 0 0 2.21 9.9a12 12 0 0 0-.15 3.42 9.96 9.96 0 0 0 3.538 6.456c1.044.881 2.219 1.538 2.219 1.232 0-.044-.125-.194-.275-.35-1.025-1-1.563-2.77-1.35-4.407.287-2.188 1.168-3.644 2.887-4.775.325-.22.625-.394.657-.394.125 0 .05-.25-.263-.863a5.9 5.9 0 0 1-.813-3 6.5 6.5 0 0 1 1.7-4.375c.3-.294.338-.356.338-.594 0-.237-.012-.25-.162-.25-.1 0-.394.056-.663.119"/>
    <path fill="#094B89" d="M15.973 2.756c0 .05.094.22.207.375.529.75.827 1.64.856 2.557.056 1.15-.25 2.15-.813 2.656-.418.375-.775.388-1.293.056-.363-.237-.407-.412-.163-.725a3.72 3.72 0 0 0 .669-2.218c0-.882-.169-1.376-.625-1.8a1.64 1.64 0 0 0-1.656-.438c-.676.156-1.313.894-1.657 1.925-.175.531-.325 1.444-.325 1.975.006 1 .3 2.175.731 2.894.325.506.726.96 1.188 1.344.125.1.244.2.244.219 0 .025-.125.087-.282.15-1.15.431-2.312 1.731-2.825 3.162-.31.8-.449 1.656-.406 2.513.044 1.05.231 1.544.819 2.188.462.512 1.337.75 2.388.644 1.212-.125 2.143-.563 2.937-1.4.35-.375.419-.42.488-.338.062.075.05.131-.075.35-.794 1.369-2.27 2.538-3.638 2.881-.3.075-.425.138-.425.2 0 .22 1.862-.08 2.994-.487a10.31 10.31 0 0 0 6.219-6.363c.394-1.2.463-1.675.469-3.17 0-1.162-.013-1.437-.131-2.024a10.22 10.22 0 0 0-5.182-6.957q-.713-.403-.713-.169"/>
</svg>
